packages/astro-components-stencil/src/icons/border-all.svg

<svg xmlns="http://www.w3.org/2000/svg" viewBox="0 0 24 24"><g xmlns="http://www.w3.org/2000/svg" id="border-all" fill-rule="nonzero">
            <path d="M3 5v14c0 1.1.9 2 2 2h14c1.1 0 2-.9 2-2V5c0-1.1-.9-2-2-2H5c-1.1 0-2 .9-2 2zm8 14H6c-.55 0-1-.45-1-1v-5h5c.55 0 1 .45 1 1v5zm-1-8H5V6c0-.55.45-1 1-1h5v5c0 .55-.45 1-1 1zm8 8h-5v-5c0-.55.45-1 1-1h5v5c0 .55-.45 1-1 1zm1-8h-5c-.55 0-1-.45-1-1V5h5c.55 0 1 .45 1 1v5z"/>
        </g></svg>

<svg width="24" height="24" viewBox="0 0 24 24" fill="none" xmlns="http://www.w3.org/2000/svg">
<path fill-rule="evenodd" clip-rule="evenodd" d="M3 5V19C3 20.1 3.9 21 5 21H19C20.1 21 21 20.1 21 19V5C21 3.9 20.1 3 19 3H5C3.9 3 3 3.9 3 5ZM11 19H6C5.45 19 5 18.55 5 18V13H10C10.55 13 11 13.45 11 14V19ZM5 11H10C10.55 11 11 10.55 11 10V5H6C5.45 5 5 5.45 5 6V11ZM18 19H13V14C13 13.45 13.45 13 14 13H19V18C19 18.55 18.55 19 18 19ZM14 11H19V6C19 5.45 18.55 5 18 5H13V10C13 10.55 13.45 11 14 11Z" fill="black"/>
</svg>
